packages/ffe-icons/icons/filled/md/trip.svg

<svg xmlns="http://www.w3.org/2000/svg" height="24" viewBox="0 -960 960 960" width="24"><path d="M699.999-140.001v-559.998h87.692q30.308 0 51.308 21t21 51.308v415.382q0 30.308-21 51.308t-51.308 21h-87.692ZM400-699.999h160v-67.691q0-4.616-3.846-8.462-3.847-3.847-8.463-3.847H412.309q-4.616 0-8.463 3.847Q400-772.306 400-767.69v67.691Zm-80 559.998v-559.998h20.001v-67.691q0-30.307 21-51.307 21-21 51.308-21h135.382q30.308 0 51.308 21t21 51.307v67.691H640v559.998H320Zm-147.691 0q-30.308 0-51.308-21t-21-51.308v-415.382q0-30.308 21-51.308t51.308-21h87.692v559.998h-87.692Z"/></svg>

<svg xmlns="http://www.w3.org/2000/svg" height="24" viewBox="0 -960 960 960" width="24"><path d="M700-140v-560h87.69Q818-700 839-679q21 21 21 51.31v415.38Q860-182 839-161q-21 21-51.31 21H700ZM400-700h160v-67.69q0-4.62-3.85-8.46-3.84-3.85-8.46-3.85H412.31q-4.62 0-8.46 3.85-3.85 3.84-3.85 8.46V-700Zm-80 560v-560h20v-67.69Q340-798 361-819q21-21 51.31-21h135.38Q578-840 599-819q21 21 21 51.31V-700h20v560H320Zm-147.69 0Q142-140 121-161q-21-21-21-51.31v-415.38Q100-658 121-679q21-21 51.31-21H260v560h-87.69Z"/></svg>
